X:1
T:Some Time We’ll Understand
T:James McGranahan
T:Some Time We’ll Understand
T:Public Domain
T:Public Domain
C:James McGranahan
Z:Public Domain
%%score ( 1 2 ) ( 3 4 )
L:1/8
M:4/4
K:Ab
V:1 treble 
V:2 treble 
V:3 bass 
V:4 bass 
V:1
 [CE]2 | [Ec]3 [DB] [CA][A,C][CE][CA] | [DG]6 [DG]2 | [DG]3 [Fd] [DF][DG][DF]E | [Ec]6 [CE]2 | %5
w: 1.~Not|now, but in the com- ing|years, It|may be in the bet- ter|We’ll read|
w: 2.~We’ll|catch the brok- en thread a-|gain, And|fin- ish what we here be-|Heav’n will|
w: 3.~We’ll|know why clouds in- stead of|sun Were|o- ver many a cher- ished|Why song|
w: 4.~God|knows the way, He holds the|key, He|guides us with un- err- ing|Some time|
 [Ec]3 [DB] [CA][A,C][CE][E_G] | [DF]6 [Fd]2 | [Ed]3 [Ec] [Ec][DB][DF][DG] | [EA]4- [EA] || %9
w: the mean- ing of our tears,|And there,|some time, we’ll un- der- stand.||
w: the mys- ter- ies ex- plain,|And then,|ah then, we’ll un- der- stand.|Then *|
w: has ceased when scarce be- gun;|’Tis there,|some time, we’ll un- der- stand.||
w: with tear- less eyes we’ll see;|Yes, there,|up there, we’ll un- der- stand.||
"^Refrain" [EB][GB][AB] | [GB]3 [GB] [Ac][AB] | [Ge]3 [Ge] [GB][Ge] | [A=d]3 [=Dc] [DA][DF] | %13
w: ||||
w: trust in God|through all the days;|Fear not, for He|doth hold thy hand;|
w: ||||
w: ||||
 (EC D2) [CE]2 | [Ec]3 [DB] [CA][A,C][CE][EA] | ([Ac]2 [Gd]2 [_Ge]3) [Ge] | %16
w: |||
w: Though * * dark|way, still sing and praise, Some|time, * * some|
w: |||
w: |||
 [Fe]3 [Fd] [DF][Fd] [Ec]>[DB] | [CA]6 |] %18
w: ||
w: time we’ll un- der- stand. *||
w: ||
w: ||
V:2
 x2 | x8 | x8 | x7 E | x8 | x8 | x8 | x8 | x5 || x3 | x6 | x6 | x6 | E4 x2 | x8 | x8 | x8 | x6 |] %18
w: |||land,|||||||||||||||
w: |||gan;||||||||||thy|||||
w: |||plan;|||||||||||||||
w: |||hand;|||||||||||||||
V:3
 [A,,A,]2 | [A,,A,]3 [A,,E,] [A,,E,][A,,E,][A,,A,][A,,A,] | [B,,E,]6 (E,G,) | %3
w: ~|~ ~ ~ ~ ~ ~|~ ~ *|
 [E,B,]3 [E,B,] [E,B,][E,B,][E,B,][E,G,] | [A,,A,]6 [A,,A,]2 | %5
w: ~ ~ ~ ~ ~ ~|~ ~|
 [A,,A,]3 [A,,E,] [A,,E,][A,,E,][A,,A,][C,A,] | [D,A,]6 [D,A,]2 | %7
w: ~ ~ ~ ~ ~ ~|~ ~|
 [E,G,]3 [E,G,] [E,G,][E,G,][E,B,][E,B,] | [A,,A,]4- [A,,A,] || [E,G,][E,B,][B,,=D] | %10
w: ~ ~ ~ ~ ~ ~|~ *|~ ~ ~|
 [E,E]3 [E,E] [A,E][F,B,] | [E,B,]3 [E,B,] [E,E][E,B,] | [F,B,]3 [F,B,] [B,,B,][B,,A,] | %13
w: ~ ~ ~ ~|~ ~ ~ ~|~ ~ doth hold~thy~hand|
 [E,G,]4 [A,,A,]2 | [A,,A,]3 [E,G,] A,A,A,[A,C] | (A,2 B,2 C3) [C,A,] | %16
w: |||
 [D,A,]3 [D,A,] [D,A,][D,A,] [E,G,]>[E,G,] | [A,,A,]6 |] %18
w: ||
V:4
 x2 | x8 | x6 B,,2 | x8 | x8 | x8 | x8 | x8 | x5 || x3 | x6 | x6 | x6 | x6 | x4 A,A,A, x | E6 x2 | %16
w: ||~||||||||||||||
 x8 | x6 |] %18
w: ||

